custom_files/u165.svg

<svg width="19" height="19" viewBox="-237 442 19 19" xmlns="http://www.w3.org/2000/svg"><path d="M-227.5 442c5.32 0 9.5 4.18 9.5 9.5s-4.18 9.5-9.5 9.5-9.5-4.18-9.5-9.5 4.18-9.5 9.5-9.5z" fill="#aaa5a5"/><path d="M-227.5 442.5c5.04 0 9 3.96 9 9s-3.96 9-9 9-9-3.96-9-9 3.96-9 9-9z" stroke="#797979" fill="none"/></svg>

﻿<?xml version="1.0" encoding="utf-8"?>
<svg version="1.1" xmlns:xlink="http://www.w3.org/1999/xlink" width="19px" height="19px" viewBox="-237 442  19 19" xmlns="http://www.w3.org/2000/svg">
  <path d="M -227.5 442  C -222.18 442  -218 446.18  -218 451.5  C -218 456.82  -222.18 461  -227.5 461  C -232.82 461  -237 456.82  -237 451.5  C -237 446.18  -232.82 442  -227.5 442  Z " fill-rule="nonzero" fill="#aaa5a5" stroke="none" />
  <path d="M -227.5 442.5  C -222.46 442.5  -218.5 446.46  -218.5 451.5  C -218.5 456.54  -222.46 460.5  -227.5 460.5  C -232.54 460.5  -236.5 456.54  -236.5 451.5  C -236.5 446.46  -232.54 442.5  -227.5 442.5  Z " stroke-width="1" stroke="#797979" fill="none" />
</svg>
